X:1
T:Galway, SM
T:Galway, SM
T:Edward Miller, 1790
T:Public Domain Courtesy of the Cyber Hymnal™
C:Edward Miller, 1790
Z:Public Domain
Z:Courtesy of the Cyber Hymnal™
%%score ( 1 2 ) ( 3 4 )
L:1/8
M:3/4
K:F
V:1 treble 
V:2 treble 
V:3 bass 
V:4 bass 
V:1
 F2 | [EB]4 [FA]2 | (AG) [CF]2 [CE]2 | [CF]4 [CF]2 | (G2 A2) [F=B]2 | ([Ec][Fd] [Ge]2) d2 | %6
 [Ec]4 [Gc]2 | ([Fc]2 [GB]2) [FA]2 | (B2 z _E) [Dd]2 | [CF]2 [EB]2 [FA]2 | [FA]2 [EG]2 (cB) | %11
 [FA]2 E2 [DF]2 | ([DG][GB] [FA]2) [EG]2 x | F4 |] %14
V:2
 F2 | x6 | D2 x4 | x6 | C4 x2 | x4 (GF) | x6 | x6 | F3 c2 x | x6 | x4 G2 | x6 | x7 | F4 |] %14
V:3
 [A,C]2 | [G,B,]4 [F,C]2 | [B,,B,]2 [C,A,]2 [C,G,]2 | [F,A,]4 [F,A,]2 | [E,C]2 [F,A,]2 [D,D]2 | %5
 C4 [G,,=B,]2 | [C,C]4 [C,E]2 | ([D,D]2 [E,C]2) [F,C]2 | (B,F, G,A,) [B,,B,]2 | C4 [F,,C]2 | %10
 [C,C]4 [E,C]2 | [F,C]2 [C,B,]2 [D,A,]2 | ([B,,D]2 C3) z x | [F,A,]4 |] %14
V:4
 x2 | x6 | x6 | x6 | x6 | (A,2 G,2) x2 | x6 | x6 | D,2 C,4 | (A,,2 G,,2) x2 | x6 | x6 | %12
 x2 C,2 (C,2 B,) | x4 |] %14

